X: 29
M:9/8
L:1/8
K:G
v(dBG) (G2B) (G2B)|(dBG) (G2B) (c2e)|(dBG) (G2B) (G2B)|e2A A2B (cBA)|
(dBG) (G2B) (G2B)|(dBG) (G2B) (c2e)|(dBG) (G2B) (G2B)|e2A (A2B) cBA:||:
vG2g (gfg) d2B|(gdB) B2c d2B|G2g (gfg) d2B|e2A A2B (cBA)|


